public/assets/images/icons/grey/visibility-visible/question-circle-full.svg

<svg width="16" height="16" xmlns="http://www.w3.org/2000/svg" viewBox="0 0 16 16" shape-rendering="geometricPrecision" fill="#6e6e6e"><defs><mask id="a"><rect fill="#fff" width="100%" height="100%"/><path d="M12.997.858a4.809 4.809 0 0 0-4.253 2.563 4.81 4.81 0 0 0 8.506 0A4.812 4.812 0 0 0 12.997.858z" fill="#000"/></mask></defs><path d="M12.971 1.607c-1.315 0-2.454.74-3.029 1.825a3.425 3.425 0 0 0 6.058 0 3.43 3.43 0 0 0-3.029-1.825z" fill="#cb1800"/><path d="M7.999.97a7.03 7.03 0 0 0 0 14.06 7.03 7.03 0 1 0 0-14.06zm-.082 11.554h-.011c-.663 0-1.121-.496-1.121-1.16 0-.686.471-1.156 1.132-1.156.688 0 1.136.471 1.147 1.156.001.664-.458 1.16-1.147 1.16zm1.543-4.75c-.472.52-.663 1.02-.65 1.594v.229H7.116l-.012-.332c-.038-.65.177-1.312.75-1.988.409-.497.742-.905.742-1.339 0-.445-.293-.738-.93-.764-.423 0-.932.152-1.262.381L5.97 4.169c.472-.268 1.223-.523 2.127-.523 1.681 0 2.446.93 2.446 1.986 0 .969-.597 1.605-1.083 2.142z" mask="url(#a)"/></svg>

<?xml version="1.0"?><!DOCTYPE svg PUBLIC "-//W3C//DTD SVG 1.1//EN" "http://www.w3.org/Graphics/SVG/1.1/DTD/svg11.dtd"><svg width="16px" height="16px" xmlns="http://www.w3.org/2000/svg" viewBox="0 0 16 16" shape-rendering="geometricPrecision" fill="#6e6e6e"><defs><mask id="visibility-visible-path"><rect fill="#fff" width="100%" height="100%"/><path d="M12.997,0.858c-1.845,0-3.446,1.039-4.253,2.563c0.808,1.523,2.408,2.562,4.253,2.562 c1.844,0,3.444-1.039,4.253-2.562C16.441,1.897,14.841,0.858,12.997,0.858z" fill="#000"/></mask></defs><path display="inline" d="M12.971,1.607c-1.315,0-2.454,0.74-3.029,1.825 c0.575,1.085,1.715,1.825,3.029,1.825c1.314,0,2.453-0.74,3.029-1.825C15.424,2.348,14.284,1.607,12.971,1.607z" fill="#cb1800"/><g mask="url(#visibility-visible-path)"><path d="M7.999,0.97c-3.882,0-7.029,3.147-7.029,7.033c0.001,3.881,3.147,7.025,7.029,7.027 c3.883-0.002,7.031-3.146,7.031-7.027C15.03,4.116,11.882,0.97,7.999,0.97z M7.917,12.524H7.906c-0.663,0-1.121-0.496-1.121-1.16 c0-0.686,0.471-1.156,1.132-1.156c0.688,0,1.136,0.471,1.147,1.156C9.065,12.028,8.606,12.524,7.917,12.524z M9.46,7.774 c-0.472,0.52-0.663,1.02-0.65,1.594v0.229H7.116L7.104,9.265c-0.038-0.65,0.177-1.312,0.75-1.988 C8.263,6.78,8.596,6.372,8.596,5.938c0-0.445-0.293-0.738-0.93-0.764c-0.423,0-0.932,0.152-1.262,0.381L5.97,4.169 c0.472-0.268,1.223-0.523,2.127-0.523c1.681,0,2.446,0.93,2.446,1.986C10.543,6.601,9.946,7.237,9.46,7.774z"/></g></svg>
